X: 26036
T: Mazurka La Pleau
R: mazurka
M: 3/4
K: Gmajor
|:D>G|B2 B>d B>G|B>^A B>d (3B=AG|A2 A>c B>A|B2 G2 D>G|
B2 B>d B>G|B2 B>d B>G|A2 A>c B>A|G4:|
|:d>B|G>D G>B (3dcB|c2 A2 c>A|F>D F>A (3cBA|B2 G>D d>B|
G2 D>G d>B|c2 A2 c>A|F2- F>A (3cBA|G4:|

